X: 536
T: Dağlara Çen Düşende
C: (Anonim)
O: Turkey
F: http://compmusic.upf.edu/node/140
N: buselik--turku--azeriyuruksemai--daglara_cen--
N: makam= buselik
N: form= turku
N: usul= azeriyuruksemai = 6/8
M: 6/8
L: 1/16
K: C    
Q: 1/4=336
%%MIDI tuningsystem comma53
e4 c2c2 c2z2  | c4 e2{f}d2 {e}c4  | z4 e2e2 e2d2  | \
w:  ARANAĞME  |   |   | 
d4 {e}c2c2 c2d2  | d2B8-B2  | 
w:   |   | 
z4 B2d2 B4  | d3B d2c2 B4  | z4 .d2.d2 d2B2  | \
w:   |   |   | 
c2{d}B2 {c}A2B2 {c}A2{B}^G2  | A2^G2 A2B2 c2d2  | 
w:   |   | 
e4 c2c2 c2z2  | c4 e2{f}d2 {e}c4  | z4 e2e2 e2d2  | \
w:  ARANAĞME  |   |   | 
d4 {e}c2c2 c2d2  | d2B8-B2  | 
w:   |   | 
z4 B2d2 B4  | d3B d2c2 B4  | z4 .d2.d2 d2B2  | \
w:   |   |   | 
c2{d}B2 {c}A2B2 {c}A2{B}^G2  | ABcB cdcd edef  | 
w:   |   | 
e4 e2e2 e4  | e3d e2d2 c2z2  | z4 e2f2 f2e2  | \
w:  *  Dağ la ra   |  çen  *  dü şen de    |  Bül bü le   | 
e4 d2d2 e4  | egf4e2 d4  | 
w:  gam  *  dü şen  |  de    | 
z4 d2e2 d2z2  | d2{e}d2 e2d2 c4  | z4 e2e2 e2d2  | \
w:  Ru hum  be  |  den *  *  den_ oy nar    |  Yâ dı ma   | 
d4 c2c2 d2e2  | e2e2 e2ef edcd  | 
w:  sen  *  dü şen  |  de   *  *  SAZ  | 
e4 e2e2 e4  | e3d e2d2 c2z2  | z4 e2f2 f2e2  | \
w:  *  Dağ la ra   |  çen  *  dü şen de    |  Bül bü le   | 
e4 d2d2 e4  | egf4e2 d4  | 
w:  gam  *  dü şen  |  de    | 
z4 d2e2 d2z2  | d2{e}d2 e2d2 c4  | z4 e2e2 e2d2  | \
w:  Ru hum  be  |  den *  *  den_ oy nar    |  Yâ dı ma   | 
d4 c2c2 d2e2  | e2e2 e2gf edcB  | 
w:  sen  *  dü şen  |  de   *  *  SAZ  | 
c4 c2c2 c4  | c4 e2d2 c4  | z4 e2e2 e2d2  | \
w:  *  Bu  ga la   |  daş lı  ga la    |  Cın gıl lı   | 
d4 {e}c2c2 c2d2  | d4 B2B2 B4  | 
w:  daş *  *  lı  ga  |  la    | 
z4 B2d2 B2B2  | d3B d2{e}c2 {d}B4  | \
w:  Gor hı ram   |  yâr  gel *  *  mi *  ye    | 
z4 d2d2 c2B2  | c2B2 A2B2 A2^G2  | 
w:  Göz le rim   |  yaş *  *  lı  ga  | 
A2^G2 A2B2 c2d2  | e4 c2c2 c2z2  | c4 e2{f}d2 {e}c4  | \
w:  la   SAZ  |  ARANAĞME  |   | 
z4 e2e2 e2d2  | d4 {e}c2c2 c2d2  | 
w:   |   | 
d2B8-B2  | z4 B2d2 B4  | d3B d2c2 B4  | \
w:   |   |   | 
z4 .d2.d2 d2B2  | c2{d}B2 {c}A2B2 {c}A2{B}^G2  | 
w:   |   | 
A2^G2 A2B2 c2d2  | e4 c2c2 c2z2  | c4 e2{f}d2 {e}c4  | \
w:   |  ARANAĞME  |   | 
z4 e2e2 e2d2  | d4 {e}c2c2 c2d2  | 
w:   |   | 
d2B8-B2  | z4 B2d2 B4  | d3B d2c2 B4  | \
w:   |   |   | 
z4 .d2.d2 d2B2  | c2{d}B2 {c}A2B2 {c}A2{B}^G2  | 
w:   |   | 
ABcB cdcd edef  | e4 e2e2 e4  | e3d e2d2 c2z2  | 
w:   |  *  Dağ la ra   |  çen  *  dü şen de    | 
z4 e2f2 f2e2  | e4 d2d2 e4  | egf4e2 d4  | \
w:  Bül bü le   |  gam  *  dü şen  |  de    | 
z4 d2e2 d2z2  | d2{e}d2 e2d2 c4  | 
w:  Ru hum  be  |  den *  *  den_ oy nar    | 
z4 e2e2 e2d2  | d4 c2c2 d2e2  | e2e2 e2ef edcd  | \
w:  Yâ dı ma   |  sen  *  dü şen  |  de   *  *  SAZ  | 
e4 e2e2 e4  | 
w:  *  Dağ la ra   | 
e3d e2d2 c2z2  | z4 e2f2 f2e2  | e4 d2d2 e4  | \
w:  çen  *  dü şen de    |  Bül bü le   |  gam  *  dü şen  | 
egf4e2 d4  | z4 d2e2 d2z2  | 
w:  de    |  Ru hum  be  | 
d2{e}d2 e2d2 c4  | z4 e2e2 e2d2  | d4 c2c2 d2e2  | \
w:  den *  *  den_ oy nar    |  Yâ dı ma   |  sen  *  dü şen  | 
e2e2 e2gf edcB  | 
w:  de   *  *  SAZ  | 
c4 c2c2 c4  | c4 e2d2 c4  | z4 e2e2 e2d2  | \
w:  *  Bu  ga la   |  daş lı  ga la    |  Cın gıl lı   | 
d4 {e}c2c2 c2d2  | d4 B2B2 B4  | 
w:  daş *  *  lı  ga  |  la    | 
z4 B2d2 B2B2  | d3B d2{e}c2 {d}B4  | \
w:  Gor hı ram   |  yâr  gel *  *  mi *  ye    | 
z4 d2d2 c2B2  | c2B2 A2B2 A2^G2  | 
w:  Göz le rim   |  yaş *  *  lı  ga  | 
A12  | |


